X: 2926
T: Barred Galaxy, The
R: hornpipe
M: 4/4
K: Gmajor
||df|"G"g2 Be "D7"d3_e|"C"e2 ce "G"dB AB|"Am"c2 Ac "G"B2 GB|"A7" A^c ag "D"fd ef|
"G"g2 Be "D7"d3_e|"C"e2 ce "G"dB AB|"Am"c2 Ac "G"Bd ga|"D7"ba gf "G"g2 ga|
"G"b2 ag "D7"af f2|"Em"g2 fe "Bm"fd d2|"C"e2 ce "G"d2 Bd|"A7"A^c ag "D7"fd ef|
"G"b2 ag "D7"af f2|"Em"g2 fe "Bm"fd d2|"C"e2 ce "G"d2 Bd|"D7"ce af "G"g2||

